src/images/npm-icon.svg

<?xml version="1.0" encoding="utf-8"?><!-- Uploaded to: SVG Repo, www.svgrepo.com, Generator: SVG Repo Mixer Tools -->
<svg width="800px" height="800px" viewBox="0 0 32 32" fill="none" xmlns="http://www.w3.org/2000/svg">
<path d="M0 10V20H9V22H16V20H32V10H0Z" fill="#CB3837"/>
<path d="M5.46205 12H2V18H5.46205V13.6111H7.22344V18H8.98482V12H5.46205ZM10.7462 12V20H14.269V18H17.731V12H10.7462ZM15.9696 16.3889H14.269V13.6111H15.9696V16.3889ZM22.9545 12H19.4924V18H22.9545V13.6111H24.7158V18H26.4772V13.6111H28.2386V18H30V12H22.9545Z" fill="white"/>
</svg>

<svg width="800" height="800" viewBox="0 0 32 32" fill="none" xmlns="http://www.w3.org/2000/svg"><path d="M0 10v10h9v2h7v-2h16V10H0Z" fill="#CB3837"/><path d="M5.462 12H2v6h3.462v-4.389h1.761V18h1.762v-6H5.462Zm5.284 0v8h3.523v-2h3.462v-6h-6.985Zm5.224 4.389h-1.701V13.61h1.7v2.778ZM22.954 12h-3.462v6h3.462v-4.389h1.762V18h1.761v-4.389h1.762V18H30v-6h-7.046Z" fill="#fff"/></svg>
